actions/symbolic/sidebar-places-symbolic.svg

<svg viewBox="0 0 16 16" xmlns="http://www.w3.org/2000/svg"><path d="m2.2159598 3.500748c-.1197838 0-.2159598.0954753-.2159598.2143865v8.7582655l12 .0266v-7.5168191c0-.1189201-.096176-.2160573-.21596-.2160573h-6.5055802c-.220381.0193478-.2493572-.0085915-.3582589-.1528957-.1544332-.2051729-.3870275-.7587844-.5390625-.9589222-.1220316-.175226-.1424807-.1545577-.3448661-.1545577z" fill="#bebebe"/></svg>

<?xml version="1.0" encoding="UTF-8" standalone="no"?>
<svg
   xmlns:dc="http://purl.org/dc/elements/1.1/"
   xmlns:cc="http://creativecommons.org/ns#"
   xmlns:rdf="http://www.w3.org/1999/02/22-rdf-syntax-ns#"
   xmlns:svg="http://www.w3.org/2000/svg"
   xmlns="http://www.w3.org/2000/svg"
   xmlns:sodipodi="http://sodipodi.sourceforge.net/DTD/sodipodi-0.dtd"
   xmlns:inkscape="http://www.inkscape.org/namespaces/inkscape"
   viewBox="0 0 16 16"
   id="svg3313"
   version="1.1"
   inkscape:version="0.91 r13725"
   sodipodi:docname="sidebar-places-symbolic.svg">
  <metadata
     id="metadata3321">
    <rdf:RDF>
      <cc:Work
         rdf:about="">
        <dc:format>image/svg+xml</dc:format>
        <dc:type
           rdf:resource="http://purl.org/dc/dcmitype/StillImage" />
      </cc:Work>
    </rdf:RDF>
  </metadata>
  <sodipodi:namedview
     pagecolor="#ffffff"
     bordercolor="#666666"
     borderopacity="1"
     objecttolerance="10"
     gridtolerance="10"
     guidetolerance="10"
     inkscape:pageopacity="0"
     inkscape:pageshadow="2"
     inkscape:window-width="640"
     inkscape:window-height="480"
     id="namedview3319"
     showgrid="false"
     inkscape:zoom="13.002901"
     inkscape:cx="8.5122194"
     inkscape:cy="-2.7622138"
     inkscape:current-layer="svg3313" />
  <defs
     id="defs3051">
    <style
       type="text/css"
       id="current-color-scheme">
      .ColorScheme-Text {
        color:#bebebe;
      }
      </style>
  </defs>
  <path
     style="color:#bebebe;fill:currentColor;fill-opacity:1;stroke:none"
     class="ColorScheme-Text"
     d="M 2.2159598,3.500748 C 2.096176,3.500748 2,3.5962233 2,3.7151345 L 2,12.4734 14,12.5 14,4.9831809 C 14,4.8642608 13.903824,4.7671236 13.78404,4.7671236 l -6.5055802,0 C 7.0580788,4.7864714 7.0291026,4.7585321 6.9202009,4.6142279 6.7657677,4.409055 6.5331734,3.8554435 6.3811384,3.6553057 6.2591068,3.4800797 6.2386577,3.500748 6.0362723,3.500748 l -3.8203125,0 z"
     id="path3317"
     inkscape:connector-curvature="0" />
</svg>
